src/pos-icons/map-marker-path.svg

<svg height="24" viewBox="0 0 24 24" width="24" xmlns="http://www.w3.org/2000/svg"><path d="m18 15a3 3 0 0 1 3 3 3 3 0 0 1 -3 3c-1.31 0-2.42-.83-2.83-2h-1.17v-2h1.17c.41-1.17 1.52-2 2.83-2m0 2a1 1 0 0 0 -1 1 1 1 0 0 0 1 1 1 1 0 0 0 1-1 1 1 0 0 0 -1-1m0-9a1.43 1.43 0 0 0 1.43-1.43c0-.79-.64-1.43-1.43-1.43s-1.43.64-1.43 1.43a1.43 1.43 0 0 0 1.43 1.43m0-5.43a4 4 0 0 1 4 4c0 2.99-4 7.43-4 7.43s-4-4.44-4-7.43a4 4 0 0 1 4-4m-9.17 14.43h1.17v2h-1.17c-.41 1.17-1.52 2-2.83 2a3 3 0 0 1 -3-3c0-1.31.83-2.42 2-2.83v-1.17h2v1.17c.85.3 1.53.98 1.83 1.83m-2.83 0a1 1 0 0 0 -1 1 1 1 0 0 0 1 1 1 1 0 0 0 1-1 1 1 0 0 0 -1-1m0-14a3 3 0 0 1 3 3c0 1.31-.83 2.42-2 2.83v1.17h-2v-1.17c-1.17-.41-2-1.52-2-2.83a3 3 0 0 1 3-3m0 2a1 1 0 0 0 -1 1 1 1 0 0 0 1 1 1 1 0 0 0 1-1 1 1 0 0 0 -1-1m5 14v-2h2v2zm-4-6h-2v-2h2z"/></svg>

<?xml version="1.0" encoding="UTF-8"?><!DOCTYPE svg PUBLIC "-//W3C//DTD SVG 1.1//EN" "http://www.w3.org/Graphics/SVG/1.1/DTD/svg11.dtd"><svg xmlns="http://www.w3.org/2000/svg" xmlns:xlink="http://www.w3.org/1999/xlink" version="1.1" id="mdi-map-marker-path" width="24" height="24" viewBox="0 0 24 24"><path d="M18,15A3,3 0 0,1 21,18A3,3 0 0,1 18,21C16.69,21 15.58,20.17 15.17,19H14V17H15.17C15.58,15.83 16.69,15 18,15M18,17A1,1 0 0,0 17,18A1,1 0 0,0 18,19A1,1 0 0,0 19,18A1,1 0 0,0 18,17M18,8A1.43,1.43 0 0,0 19.43,6.57C19.43,5.78 18.79,5.14 18,5.14C17.21,5.14 16.57,5.78 16.57,6.57A1.43,1.43 0 0,0 18,8M18,2.57A4,4 0 0,1 22,6.57C22,9.56 18,14 18,14C18,14 14,9.56 14,6.57A4,4 0 0,1 18,2.57M8.83,17H10V19H8.83C8.42,20.17 7.31,21 6,21A3,3 0 0,1 3,18C3,16.69 3.83,15.58 5,15.17V14H7V15.17C7.85,15.47 8.53,16.15 8.83,17M6,17A1,1 0 0,0 5,18A1,1 0 0,0 6,19A1,1 0 0,0 7,18A1,1 0 0,0 6,17M6,3A3,3 0 0,1 9,6C9,7.31 8.17,8.42 7,8.83V10H5V8.83C3.83,8.42 3,7.31 3,6A3,3 0 0,1 6,3M6,5A1,1 0 0,0 5,6A1,1 0 0,0 6,7A1,1 0 0,0 7,6A1,1 0 0,0 6,5M11,19V17H13V19H11M7,13H5V11H7V13Z" /></svg>
